X: 751
T: Ertong fangshao
L: 1/8
M: 2/4
K: G
d e/ d/ c A [I:setbarnb 1]| 
d e/ d/ c A | 
d B d e | 
E GA2 | 
e d e d | 
B ed2 | 
E GA2 | 
c> A G B | 
A ED2 |]

@@@ Tune index: 9625
